build/img/seo.svg

<svg width="104" height="45" viewBox="0 0 104 45" fill="none" xmlns="http://www.w3.org/2000/svg">
<rect x="1" y="1" width="102" height="43" stroke="#878183" stroke-width="2"/>
<path d="M12.222 19.132C13.135 19.132 13.949 18.648 14.576 17.383L17.623 11.3H16.677L14.224 16.327L11.386 11.3H10.396L13.784 17.196C13.333 18.054 12.772 18.351 12.244 18.351C11.837 18.351 11.573 18.285 11.265 18.12L10.924 18.813C11.331 19.022 11.716 19.132 12.222 19.132ZM20.5327 19H21.3797V12.774L24.1847 16.888H24.2287L27.0337 12.763V19H27.9027V11.3H27.0227L24.2177 15.502L21.4127 11.3H20.5327V19ZM31.5125 19H32.3815V15.535H36.8255V19H37.6945V11.3H36.8255V14.721H32.3815V11.3H31.5125V19ZM41.2999 19H44.2479C45.9969 19 47.1079 18.054 47.1079 16.547C47.1079 14.941 45.7659 14.281 44.1159 14.281H42.1689V11.3H41.2999V19ZM42.1689 18.208V15.062H44.1709C45.4469 15.062 46.2389 15.568 46.2389 16.569C46.2389 17.658 45.4579 18.208 44.2259 18.208H42.1689ZM48.0979 19H48.9669V11.3H48.0979V19ZM52.5697 19H58.1907V18.208H53.4387V15.513H57.6407V14.721H53.4387V12.092H58.1357V11.3H52.5697V19ZM68.6927 19.11C70.3097 19.11 71.4427 18.252 71.4427 16.811C71.4427 15.513 70.5957 14.93 68.9677 14.534C67.4937 14.182 67.1417 13.918 67.1417 13.324C67.1417 12.796 67.6037 12.389 68.3957 12.389C69.0997 12.389 69.7927 12.664 70.4857 13.181L71.2117 12.158C70.4307 11.531 69.5397 11.19 68.4177 11.19C66.8887 11.19 65.7887 12.103 65.7887 13.423C65.7887 14.864 66.7127 15.348 68.3517 15.733C69.7817 16.074 70.0897 16.371 70.0897 16.921C70.0897 17.526 69.5617 17.911 68.7257 17.911C67.7687 17.911 67.0317 17.548 66.2947 16.91L65.4807 17.878C66.4047 18.703 67.5157 19.11 68.6927 19.11ZM74.4639 19H80.2279V17.79H75.8169V15.722H79.6779V14.512H75.8169V12.51H80.1729V11.3H74.4639V19ZM86.937 19.132C89.302 19.132 90.974 17.317 90.974 15.15C90.974 12.961 89.324 11.168 86.959 11.168C84.594 11.168 82.922 12.983 82.922 15.15C82.922 17.339 84.572 19.132 86.937 19.132ZM86.959 17.889C85.43 17.889 84.341 16.646 84.341 15.15C84.341 13.632 85.408 12.411 86.937 12.411C88.466 12.411 89.555 13.654 89.555 15.15C89.555 16.668 88.488 17.889 86.959 17.889ZM13.124 34H14.004V27.092H16.589V26.3H10.539V27.092H13.124V34ZM18.2218 34H23.8428V33.208H19.0908V30.513H23.2928V29.721H19.0908V27.092H23.7878V26.3H18.2218V34ZM25.008 34H26.009L28.473 30.689L30.937 34H31.971L29.012 30.062L31.861 26.3H30.849L28.506 29.446L26.141 26.3H25.118L27.967 30.073L25.008 34ZM33.5617 34H34.4307V30.535H38.8747V34H39.7437V26.3H38.8747V29.721H34.4307V26.3H33.5617V34ZM45.4941 34.132C47.8371 34.132 49.4321 32.273 49.4321 30.15C49.4321 28.005 47.8591 26.168 45.5161 26.168C43.1731 26.168 41.5781 28.027 41.5781 30.15C41.5781 32.295 43.1511 34.132 45.4941 34.132ZM45.5161 33.329C43.7561 33.329 42.4801 31.899 42.4801 30.15C42.4801 28.379 43.7341 26.971 45.4941 26.971C47.2541 26.971 48.5301 28.401 48.5301 30.15C48.5301 31.921 47.2761 33.329 45.5161 33.329ZM51.1218 34.088C52.3098 34.088 53.4098 33.329 53.4098 27.928V27.092H56.6878V34H57.5568V26.3H52.5738V27.697C52.5738 32.944 51.5728 33.307 50.9788 33.307C50.7368 33.307 50.4178 33.252 50.2968 33.197L50.1208 33.901C50.3188 33.978 50.7808 34.088 51.1218 34.088ZM63.3046 34.132C65.6476 34.132 67.2426 32.273 67.2426 30.15C67.2426 28.005 65.6696 26.168 63.3266 26.168C60.9836 26.168 59.3886 28.027 59.3886 30.15C59.3886 32.295 60.9616 34.132 63.3046 34.132ZM63.3266 33.329C61.5666 33.329 60.2906 31.899 60.2906 30.15C60.2906 28.379 61.5446 26.971 63.3046 26.971C65.0646 26.971 66.3406 28.401 66.3406 30.15C66.3406 31.921 65.0866 33.329 63.3266 33.329ZM69.0753 34H69.9443V27.092H73.9923V26.3H69.0753V34ZM75.5529 34H76.3999L80.9869 27.609V34H81.8449V26.3H81.0199L76.4219 32.691V26.3H75.5529V34ZM84.0177 34H84.8647L89.4517 27.609V34H90.3097V26.3H89.4847L84.8867 32.691V26.3H84.0177V34Z" fill="#878183"/>
</svg>

<svg width="104" height="45" fill="none" xmlns="http://www.w3.org/2000/svg"><path stroke="#878183" stroke-width="2" d="M1 1h102v43H1z"/><path d="M12.222 19.132c.913 0 1.727-.484 2.354-1.749l3.047-6.083h-.946l-2.453 5.027-2.838-5.027h-.99l3.388 5.896c-.451.858-1.012 1.155-1.54 1.155-.407 0-.671-.066-.979-.231l-.341.693c.407.209.792.319 1.298.319zm8.31-.132h.848v-6.226l2.805 4.114h.044l2.805-4.125V19h.869v-7.7h-.88l-2.805 4.202-2.805-4.202h-.88V19zm10.98 0h.87v-3.465h4.444V19h.868v-7.7h-.869v3.421h-4.444V11.3h-.869V19zm9.788 0h2.948c1.749 0 2.86-.946 2.86-2.453 0-1.606-1.342-2.266-2.992-2.266h-1.947V11.3h-.87V19zm.869-.792v-3.146h2.002c1.276 0 2.068.506 2.068 1.507 0 1.089-.781 1.639-2.013 1.639h-2.057zm5.929.792h.869v-7.7h-.87V19zm4.472 0h5.62v-.792h-4.75v-2.695h4.202v-.792H53.44v-2.629h4.697V11.3H52.57V19zm16.123.11c1.617 0 2.75-.858 2.75-2.299 0-1.298-.847-1.881-2.475-2.277-1.474-.352-1.826-.616-1.826-1.21 0-.528.462-.935 1.254-.935.704 0 1.397.275 2.09.792l.726-1.023c-.781-.627-1.672-.968-2.794-.968-1.53 0-2.63.913-2.63 2.233 0 1.441.925 1.925 2.564 2.31 1.43.341 1.738.638 1.738 1.188 0 .605-.528.99-1.364.99-.957 0-1.694-.363-2.431-1.001l-.814.968a4.743 4.743 0 003.212 1.232zm5.77-.11h5.765v-1.21h-4.411v-2.068h3.86v-1.21h-3.86V12.51h4.356V11.3h-5.71V19zm12.474.132c2.365 0 4.037-1.815 4.037-3.982 0-2.189-1.65-3.982-4.015-3.982-2.365 0-4.037 1.815-4.037 3.982 0 2.189 1.65 3.982 4.015 3.982zm.022-1.243c-1.529 0-2.618-1.243-2.618-2.739 0-1.518 1.067-2.739 2.596-2.739 1.529 0 2.618 1.243 2.618 2.739 0 1.518-1.067 2.739-2.596 2.739zM13.124 34h.88v-6.908h2.585V26.3h-6.05v.792h2.585V34zm5.098 0h5.62v-.792h-4.751v-2.695h4.202v-.792H19.09v-2.629h4.697V26.3h-5.566V34zm6.786 0h1.001l2.464-3.311L30.937 34h1.034l-2.959-3.938 2.849-3.762h-1.012l-2.343 3.146-2.365-3.146h-1.023l2.849 3.773L25.008 34zm8.554 0h.869v-3.465h4.444V34h.869v-7.7h-.87v3.421h-4.443V26.3h-.87V34zm11.932.132c2.343 0 3.938-1.859 3.938-3.982 0-2.145-1.573-3.982-3.916-3.982s-3.938 1.859-3.938 3.982c0 2.145 1.573 3.982 3.916 3.982zm.022-.803c-1.76 0-3.036-1.43-3.036-3.179 0-1.771 1.254-3.179 3.014-3.179 1.76 0 3.036 1.43 3.036 3.179 0 1.771-1.254 3.179-3.014 3.179zm5.606.759c1.188 0 2.288-.759 2.288-6.16v-.836h3.278V34h.869v-7.7h-4.983v1.397c0 5.247-1.001 5.61-1.595 5.61-.242 0-.561-.055-.682-.11l-.176.704c.198.077.66.187 1 .187zm12.183.044c2.343 0 3.938-1.859 3.938-3.982 0-2.145-1.573-3.982-3.916-3.982s-3.938 1.859-3.938 3.982c0 2.145 1.573 3.982 3.916 3.982zm.022-.803c-1.76 0-3.036-1.43-3.036-3.179 0-1.771 1.254-3.179 3.014-3.179 1.76 0 3.036 1.43 3.036 3.179 0 1.771-1.254 3.179-3.014 3.179zm5.748.671h.87v-6.908h4.047V26.3h-4.917V34zm6.478 0h.847l4.587-6.391V34h.858v-7.7h-.825l-4.598 6.391V26.3h-.87V34zm8.465 0h.847l4.587-6.391V34h.858v-7.7h-.825l-4.598 6.391V26.3h-.87V34z" fill="#878183"/></svg>
